X: 11654
T: Eileen O'Callaghan's
R: reel
M: 4/4
K: Gmajor
G2 BG DGBG|G2Bd cAFA|G2 BG DGBG|defd cAFA|
G2 BG DGBG|G2Bd cAFA|G~B3 d~B3|defd cAFA||
dggf g2 fg|adfd adfe|dggf ~g2fe|defd cAFA|
dggf g2 fg|adfd adfe|d~g3 bgag|defd cAFA||

